X: 20821
Q: "Moderate."
M: C
L: 1/8
K: C
c3e d2g2 | (ef)(dc) B3c | A2d2 (Bc)(AG) | ^F6 G2 |\
E3B (cB)(AG) | (de)(dc) e3c | (fe)(dc)  A3G | G6 |]\
d2 |\
(cB)(cd) d3e | e6 g2 |\
e3a (ge)(dc) | (B/c/d d2 e)df2 | (fe)(dc) B3e | f3e d3e |\
c4 (cBA)G | A3B c3B | d3d e3f | (ef)(dc) c3B | c6 |]


